app/images/icons/xmark.svg

<svg width="10" height="10" viewBox="0 0 10 10" fill="none" xmlns="http://www.w3.org/2000/svg">
<path d="M9.71875 1.71875L6.40625 5L9.71875 8.28125C9.90625 8.48958 10 8.72917 10 9C10 9.27083 9.90625 9.51042 9.71875 9.71875C9.51042 9.90625 9.27083 10 9 10C8.72917 10 8.48958 9.90625 8.28125 9.71875L5 6.40625L1.71875 9.71875C1.51042 9.90625 1.27083 10 1 10C0.729167 10 0.489583 9.90625 0.28125 9.71875C0.09375 9.51042 0 9.27083 0 9C0 8.72917 0.09375 8.48958 0.28125 8.28125L3.59375 5L0.28125 1.71875C0.09375 1.51042 0 1.27083 0 1C0 0.729167 0.09375 0.489583 0.28125 0.28125C0.489583 0.09375 0.729167 0 1 0C1.27083 0 1.51042 0.09375 1.71875 0.28125L5 3.59375L8.28125 0.28125C8.48958 0.09375 8.72917 0 9 0C9.27083 0 9.51042 0.09375 9.71875 0.28125C9.90625 0.489583 10 0.729167 10 1C10 1.27083 9.90625 1.51042 9.71875 1.71875Z" fill="#D92B2B"/>
</svg>

<svg width="10" height="10" fill="none" xmlns="http://www.w3.org/2000/svg"><path d="M9.719 1.719L6.406 5 9.72 8.281c.186.209.28.449.28.719 0 .27-.094.51-.281.719A1.043 1.043 0 019 10c-.27 0-.51-.094-.719-.281L5 6.406 1.719 9.72A1.043 1.043 0 011 10c-.27 0-.51-.094-.719-.281A1.043 1.043 0 010 9c0-.27.094-.51.281-.719L3.594 5 .28 1.719A1.043 1.043 0 010 1C0 .73.094.49.281.281.49.094.73 0 1 0c.27 0 .51.094.719.281L5 3.594 8.281.28C8.49.094 8.73 0 9 0c.27 0 .51.094.719.281C9.906.49 10 .73 10 1c0 .27-.094.51-.281.719z" fill="#D92B2B"/></svg>
